src/components/Careers/Benefits/images/spill-mental-health.svg

<svg xmlns="http://www.w3.org/2000/svg" width="59" height="74" fill="none" viewBox="0 0 59 74"><path fill="#F73C01" fill-opacity=".2" d="M6.67252 28.1969C7.05167 27.6309 7.27962 26.9786 7.33568 26.2996C8.18248 16.0428 10.8745 11.0755 18.5068 4.32712C18.8062 4.06235 19.156 3.84515 19.5252 3.69196C30.3425 -0.796548 34.9615 -1.1546 44.8793 2.41164C45.0796 2.48367 45.2788 2.57533 45.4625 2.68285C58.094 10.0758 62.731 24.8683 53.2925 44.3583C52.9047 45.1591 52.7889 46.0744 52.995 46.9399L56.5215 61.7511C56.9884 63.712 55.8198 65.6908 53.8772 66.2287L30.6839 72.6515C28.6322 73.2197 26.5201 71.9659 26.0364 69.8927L24.5082 63.3437C24.0336 61.3097 21.9852 60.0487 19.9229 60.3796C15.0874 61.1554 7.25738 61.7287 7.25738 57.3049C7.25738 54.3274 7.25738 50.4296 7.25738 47.423C7.25738 45.0382 4.95225 43.4646 2.66088 42.8037C1.56314 42.487 0.702293 41.806 0.702148 40.4486C0.701823 37.3924 5.0656 30.596 6.67252 28.1969Z"/><path stroke="#F73C01" stroke-opacity=".6" stroke-width="1.873" d="M8.26897 26.3766C8.68682 21.3154 9.55361 17.6437 11.2094 14.4262C12.8667 11.2056 15.3518 8.36669 19.1271 5.02867C19.3475 4.83374 19.6087 4.67122 19.8841 4.55692C25.2729 2.32092 29.01 1.16206 32.5907 0.966336C36.1553 0.77149 39.652 1.52717 44.5625 3.29286C44.7122 3.34671 44.8587 3.41452 44.9894 3.49106C51.1014 7.06826 55.2423 12.4056 56.7393 19.1861C58.2401 25.984 57.1051 34.3369 52.4497 43.9502C51.9731 44.9343 51.8252 46.0699 52.084 47.1568L55.6105 61.968C55.9607 63.4387 55.0842 64.9228 53.6273 65.3262L30.434 71.749C28.8952 72.1751 27.3111 71.2348 26.9483 69.6799L25.4202 63.1309C24.8246 60.5784 22.2811 59.0528 19.7746 59.4549C17.3746 59.84 14.3159 60.1585 11.8903 59.8625C10.6718 59.7138 9.7157 59.421 9.08666 58.9888C8.50916 58.5921 8.19384 58.0764 8.19384 57.3049V57.2874V57.2699V57.2524V57.2349V57.2174V57.1998V57.1822V57.1646V57.147V57.1294V57.1117V57.094V57.0763V57.0586V57.0409V57.0231V57.0053V56.9875V56.9697V56.9519V56.934V56.9161V56.8982V56.8803V56.8624V56.8444V56.8264V56.8084V56.7904V56.7724V56.7543V56.7363V56.7182V56.7001V56.6819V56.6638V56.6456V56.6275V56.6093V56.5911V56.5728V56.5546V56.5363V56.518V56.4997V56.4814V56.4631V56.4447V56.4263V56.4079V56.3895V56.3711V56.3527V56.3342V56.3157V56.2972V56.2787V56.2602V56.2417V56.2231V56.2046V56.186V56.1674V56.1487V56.1301V56.1115V56.0928V56.0741V56.0554V56.0367V56.018V55.9992V55.9804V55.9617V55.9429V55.9241V55.9053V55.8864V55.8676V55.8487V55.8298V55.8109V55.792V55.7731V55.7542V55.7352V55.7163V55.6973V55.6783V55.6593V55.6403V55.6212V55.6022V55.5831V55.564V55.5449V55.5258V55.5067V55.4876V55.4685V55.4493V55.4301V55.411V55.3918V55.3726V55.3533V55.3341V55.3149V55.2956V55.2763V55.2571V55.2378V55.2185V55.1992V55.1798V55.1605V55.1411V55.1218V55.1024V55.083V55.0636V55.0442V55.0248V55.0054V54.9859V54.9665V54.947V54.9275V54.9081V54.8886V54.8691V54.8495V54.83V54.8105V54.7909V54.7714V54.7518V54.7322V54.7126V54.693V54.6734V54.6538V54.6342V54.6146V54.5949V54.5753V54.5556V54.5359V54.5162V54.4966V54.4769V54.4571V54.4374V54.4177V54.398V54.3782V54.3585V54.3387V54.319V54.2992V54.2794V54.2596V54.2398V54.22V54.2002V54.1804V54.1605V54.1407V54.1208V54.101V54.0811V54.0613V54.0414V54.0215V54.0016V53.9817V53.9618V53.9419V53.922V53.9021V53.8821V53.8622V53.8423V53.8223V53.8024V53.7824V53.7624V53.7425V53.7225V53.7025V53.6825V53.6625V53.6425V53.6225V53.6025V53.5825V53.5625V53.5424V53.5224V53.5024V53.4823V53.4623V53.4422V53.4222V53.4021V53.382V53.362V53.3419V53.3218V53.3017V53.2817V53.2616V53.2415V53.2214V53.2013V53.1812V53.1611V53.1409V53.1208V53.1007V53.0806V53.0605V53.0403V53.0202V53.0001V52.9799V52.9598V52.9396V52.9195V52.8994V52.8792V52.859V52.8389V52.8187V52.7986V52.7784V52.7583V52.7381V52.7179V52.6978V52.6776V52.6574V52.6372V52.6171V52.5969V52.5767V52.5565V52.5364V52.5162V52.496V52.4758V52.4556V52.4354V52.4153V52.3951V52.3749V52.3547V52.3345V52.3143V52.2941V52.274V52.2538V52.2336V52.2134V52.1932V52.173V52.1529V52.1327V52.1125V52.0923V52.0721V52.0519V52.0318V52.0116V51.9914V51.9712V51.9511V51.9309V51.9107V51.8905V51.8704V51.8502V51.83V51.8099V51.7897V51.7696V51.7494V51.7292V51.7091V51.6889V51.6688V51.6486V51.6285V51.6084V51.5882V51.5681V51.5479V51.5278V51.5077V51.4876V51.4674V51.4473V51.4272V51.4071V51.387V51.3669V51.3468V51.3267V51.3066V51.2865V51.2664V51.2464V51.2263V51.2062V51.1862V51.1661V51.146V51.126V51.1059V51.0859V51.0659V51.0458V51.0258V51.0058V50.9858V50.9657V50.9457V50.9257V50.9057V50.8857V50.8658V50.8458V50.8258V50.8058V50.7859V50.7659V50.746V50.726V50.7061V50.6862V50.6662V50.6463V50.6264V50.6065V50.5866V50.5667V50.5468V50.527V50.5071V50.4872V50.4674V50.4475V50.4277V50.4078V50.388V50.3682V50.3484V50.3286V50.3088V50.289V50.2692V50.2495V50.2297V50.2099V50.1902V50.1705V50.1507V50.131V50.1113V50.0916V50.0719V50.0522V50.0326V50.0129V49.9932V49.9736V49.9539V49.9343V49.9147V49.8951V49.8755V49.8559V49.8363V49.8168V49.7972V49.7776V49.7581V49.7386V49.7191V49.6996V49.6801V49.6606V49.6411V49.6216V49.6022V49.5827V49.5633V49.5439V49.5245V49.5051V49.4857V49.4663V49.4469V49.4276V49.4082V49.3889V49.3696V49.3503V49.331V49.3117V49.2924V49.2732V49.2539V49.2347V49.2155V49.1963V49.1771V49.1579V49.1387V49.1196V49.1004V49.0813V49.0622V49.0431V49.024V49.0049V48.9858V48.9668V48.9477V48.9287V48.9097V48.8907V48.8717V48.8528V48.8338V48.8149V48.7959V48.777V48.7581V48.7392V48.7204V48.7015V48.6827V48.6639V48.645V48.6262V48.6075V48.5887V48.57V48.5512V48.5325V48.5138V48.4951V48.4764V48.4578V48.4391V48.4205V48.4019V48.3833V48.3647V48.3462V48.3276V48.3091V48.2906V48.2721V48.2536V48.2352V48.2167V48.1983V48.1799V48.1615V48.1431V48.1248V48.1064V48.0881V48.0698V48.0515V48.0332V48.015V47.9967V47.9785V47.9603V47.9421V47.924V47.9058V47.8877V47.8696V47.8515V47.8334V47.8153V47.7973V47.7793V47.7613V47.7433V47.7253V47.7074V47.6895V47.6716V47.6537V47.6358V47.618V47.6001V47.5823V47.5646V47.5468V47.529V47.5113V47.4936V47.4759V47.4582V47.4406V47.423C8.19384 45.8971 7.44795 44.6709 6.44381 43.7699C5.44945 42.8776 4.16276 42.2622 2.92042 41.9039C2.47037 41.7741 2.15432 41.5926 1.95612 41.3791C1.7769 41.1862 1.63866 40.9097 1.63861 40.4485C1.63855 39.8667 1.85628 39.0039 2.28045 37.9249C2.69532 36.8696 3.27157 35.6955 3.90774 34.5229C5.17931 32.1791 6.65365 29.9079 7.45057 28.7181C7.91845 28.0196 8.1998 27.2144 8.26897 26.3766Z"/><path fill="#F73C01" fill-opacity=".2" d="M47.6988 30.9633C54.9767 20.0458 44.5791 9.64823 33.1421 18.4862C22.7447 9.64823 11.3082 20.0458 19.6253 30.9633L33.1422 45L47.6988 30.9633Z"/><path stroke="#F73C01" stroke-opacity=".6" stroke-width="2.08" d="M32.4687 19.2784L33.111 19.8243L33.7779 19.3089C39.2184 15.1048 44.0931 15.6603 46.7359 18.0829C49.3764 20.5033 50.2468 25.1941 46.8949 30.2941L33.1694 43.5293L20.4166 30.286C16.5528 25.1784 17.4358 20.4962 20.0684 18.0829C22.723 15.6494 27.5833 15.1257 32.4687 19.2784Z"/></svg>

<svg fill="none" viewBox="0 0 59 74"><path fill="#F73C01" fill-opacity=".2" d="M6.673 28.197a3.998 3.998 0 00.663-1.897c.846-10.257 3.538-15.225 11.17-21.973.3-.265.65-.482 1.02-.635 10.817-4.489 15.436-4.847 25.353-1.28.2.072.4.163.584.27 12.631 7.394 17.268 22.186 7.83 41.676a3.88 3.88 0 00-.298 2.582l3.527 14.811a3.746 3.746 0 01-2.645 4.478L30.684 72.65a3.746 3.746 0 01-4.648-2.758l-1.528-6.55c-.474-2.033-2.523-3.294-4.585-2.963-4.836.775-12.666 1.349-12.666-3.075v-9.882c0-2.385-2.305-3.958-4.596-4.62-1.098-.316-1.959-.997-1.959-2.354 0-3.057 4.364-9.853 5.97-12.252z"/><path stroke="#F73C01" stroke-opacity=".6" stroke-width="1.873" d="M8.269 26.377c.418-5.062 1.285-8.733 2.94-11.95 1.658-3.221 4.143-6.06 7.918-9.398a2.73 2.73 0 01.757-.472C25.273 2.32 29.01 1.162 32.591.967c3.564-.196 7.061.56 11.971 2.326.15.054.297.122.427.198 6.112 3.577 10.253 8.915 11.75 15.695 1.501 6.798.366 15.15-4.29 24.764a4.816 4.816 0 00-.365 3.207l3.526 14.811a2.81 2.81 0 01-1.983 3.358L30.434 71.75a2.81 2.81 0 01-3.486-2.07l-1.528-6.548c-.595-2.553-3.139-4.078-5.645-3.676-2.4.385-5.46.703-7.885.407-1.218-.148-2.174-.441-2.803-.873-.578-.397-.893-.913-.893-1.684v-9.883c0-1.526-.746-2.752-1.75-3.653-.995-.892-2.281-1.508-3.524-1.866-.45-.13-.766-.311-.964-.525-.18-.193-.317-.47-.317-.93 0-.582.217-1.445.641-2.524.415-1.055.992-2.23 1.628-3.402 1.271-2.344 2.746-4.615 3.543-5.805a4.941 4.941 0 00.818-2.341z"/><path fill="#F73C01" fill-opacity=".2" d="M47.699 30.963c7.278-10.917-3.12-21.315-14.557-12.477-10.397-8.838-21.834 1.56-13.517 12.477L33.142 45 47.7 30.963z"/><path stroke="#F73C01" stroke-opacity=".6" stroke-width="2.08" d="M32.469 19.278l.642.546.667-.515c5.44-4.204 10.315-3.649 12.958-1.226 2.64 2.42 3.51 7.111.159 12.211L33.169 43.53 20.417 30.286c-3.864-5.108-2.981-9.79-.349-12.203 2.655-2.434 7.515-2.957 12.4 1.195z"/></svg>
